X: 09118
T: VICKI'S HORNPIPE
C: Bob McQuillen 27 Oct 1992
B: Bob's Note Book 9 p. 118
R: hornpipe, reel
Z: 2017 John Chambers <jc:trillian.mit.edu>
L: 1/8
M: C
K: G
GA |\
Bded gedB | GBde d2dc | BGBd gedB | c2A2 A2dc |
Bded gedB | GBde dedc | BGBd cdef | g2G2G2 :|
|: BA |\
GBdB dedB | GABG AGED | GBdB decB | Adef d2Bd |
e2ed cdec | dedc BGBd | egfa gedc | B2G2G2 :|
%%begintext align
%% You know those nice concerts they have during the week at Augusta?
%% (Well, even if you don't know they still have 'em.) Well anyway,
%% do you know who puts them on, who arranges them, who
%% directs them, who makes everybody happy back stage,
%% and makes everybody happy out in FRONT of the stage?
%% Do you know who does all this? Vicki Moss, that's who!
%% Thanks a lot for al your hard work, Vicki - you're awesome!
%%endtext

%%sep 1 1 500

%%sep 1 1 500

